assets/svgs/icon-caret-circle-right.svg

<svg width="48" height="49" viewBox="0 0 48 49" fill="none" xmlns="http://www.w3.org/2000/svg">
    <circle opacity=".2" cx="24" cy="24.8645" r="22" fill="#EAF2FB" class="svg__fill--primary-blue-01"/>
    <path d="m31 25 .7071-.7071c.3905.3905.3905 1.0237 0 1.4142L31 25Zm.7071.7071-14 14-1.4142-1.4142 14-14 1.4142 1.4142Zm-1.4142 0-14-14 1.4142-1.4142 14 14-1.4142 1.4142Z" fill="#0B6AB7" class="svg__fill--primary-blue-03"/>
  </svg>

<svg width="48" height="49" viewBox="0 0 48 49" fill="none" xmlns="http://www.w3.org/2000/svg">
<circle opacity="0.2" cx="24" cy="24.8645" r="22" fill="#EAF2FB"/>
<path d="M31 25L31.7071 24.2929C32.0976 24.6834 32.0976 25.3166 31.7071 25.7071L31 25ZM31.7071 25.7071L17.7071 39.7071L16.2929 38.2929L30.2929 24.2929L31.7071 25.7071ZM30.2929 25.7071L16.2929 11.7071L17.7071 10.2929L31.7071 24.2929L30.2929 25.7071Z" fill="#0B6AB7"/>
</svg>
